X:2049
T:Ben aeg bwaagh ayns Mullin Sayle 
C:Philip Cain, Douglas. (Blind man)
O:Isle of Man
S:Traditional
Z:Clague collection
B:Kiaull Vannin #49
L:1/4
M:2/4 
K:D 
A|F E/E/|F A|d c/B/|A/F/ E/F/|d/c/ B/c/|d/e/ f|g/f/ e|
B/c/ d/e/|f/g/ f|d/c/ B/A/|F E/E/|A d|c/c/ B|F F|E||

